images/rttf-birch.svg

<svg fill="none" height="24" viewBox="0 0 18 24" width="18" xmlns="http://www.w3.org/2000/svg"><path clip-rule="evenodd" d="m3.26857 9.12012c1.29719 0 2.3495 1.03358 2.3495 2.30988 0 1.2741-1.05231 2.3077-2.3495 2.3077-1.29939 0-2.3517-1.0336-2.3517-2.3077 0-1.2763 1.05231-2.30988 2.3517-2.30988z" fill="#57b34c" fill-rule="evenodd"/><path d="m8.57942 5.90674c-2.28153 0-4.13106 1.6231-4.13106 3.62608 0 .51178.12209.99838.3411 1.43948.13711.2762.16805.6015.03007.8772l-.71284 1.4245 1.86928-.5773c.23325-.072.48396-.0352.70126.0761.59343.3038 1.11622.3861 1.90219.3861 2.28148 0 4.13108-1.6231 4.13108-3.62608s-1.8496-3.62608-4.13108-3.62608z" fill="#2d6645"/><path clip-rule="evenodd" d="m6.81821 23.2395c0-1.5255.04413-3.0553.00662-4.5786-.00441-.273-.01985-.6608-.15443-.9057-.13898-.2535-.49196-.5417-.71036-.7302-.64198-.5526-1.26189-1.0943-1.86636-1.688-.22723-.2232-.29121-.5395-.16766-.8299.12133-.2904.39489-.468.71477-.468h8.83541c.3199 0 .5935.1776.717.468.1213.2904.0574.6067-.1699.8299-.6044.5937-1.2243 1.1354-1.8663 1.6901-.2184.1864-.5714.4746-.7104.7281s-.15.6544-.1544.9317c-.0331 1.5168.0066 3.0358.0066 4.5526 0 .4204-.3486.7606-.7743.7606-.97734 0-1.95464 0-2.93195 0-.42577 0-.77434-.3402-.77434-.7606z" fill="#213551" fill-rule="evenodd"/><path clip-rule="evenodd" d="m4.64093 14.7998c2.39803 2.351 2.91647 2.078 2.95838 3.8418.0353 1.4301-.00662 3.1636-.00662 4.5981h2.93191c0-1.4258-.0375-3.1463-.0066-4.5677.0375-1.7942.5471-1.5082 2.9584-3.8722h-4.06588-.70375z" fill="#fefefe" fill-rule="evenodd"/><path clip-rule="evenodd" d="m14.4799 8.95996c1.306 0 2.3672 1.04004 2.3672 2.32504 0 1.2828-1.0612 2.3228-2.3672 2.3228s-2.3671-1.04-2.3671-2.3228c0-1.285 1.0611-2.32504 2.3671-2.32504z" fill="#367a46" fill-rule="evenodd"/><path clip-rule="evenodd" d="m6.0923.554688c1.12952 0 2.04505.899242 2.04505 2.008662 0 1.10943-.91553 2.00867-2.04505 2.00867-1.12953 0-2.04506-.89924-2.04506-2.00867 0-1.10942.91553-2.008662 2.04506-2.008662z" fill="#2d6645" fill-rule="evenodd"/><path clip-rule="evenodd" d="m4.80845 3.09863c2.26125 0 4.09452 1.80065 4.09452 4.02384 0 2.22101-1.83327 4.02163-4.09452 4.02163s-4.094522-1.80062-4.094522-4.02163c0-2.22319 1.833272-4.02384 4.094522-4.02384z" fill="#367a46" fill-rule="evenodd"/><path d="m8.01551.0561523c-.64351 0-1.16518.4773837-1.16518 1.0664977 0 .03493.00186.06947.00548.10352.03144.29579.08352.61056-.04517.87873l-.05667.1181.24995-.0805c.24107-.07764.49873-.01519.74827.02811.07843.01361.16332.01853.26332.01853.6435 0 1.16517-.47738 1.16517-1.06649 0-.589114-.52167-1.0664977-1.16517-1.0664977z" fill="#bed700"/><path clip-rule="evenodd" d="m15.3249 6.46143c1.0832 0 1.9612.8624 1.9612 1.92416 0 1.06392-.878 1.92631-1.9612 1.92631s-1.9613-.86239-1.9613-1.92631c0-1.06176.8781-1.92416 1.9613-1.92416z" fill="#bed700" fill-rule="evenodd"/><path d="m5.35944 10.6738c-.52651 0-.95332.3819-.95332.8532 0 .2893.05864.6002-.06882.8599l-.01003.0204.14268-.0449c.23686-.0746.49157-.0126.73872.0115.04608.0045.09562.0063.15077.0063.52651 0 .95332-.3819.95332-.8532s-.42681-.8532-.95332-.8532z" fill="#bed700"/><path d="m12.4771 11.2676c.5265 0 .9533.3819.9533.8532 0 .2893-.0586.6001.0689.8598l.01.0205-.1427-.045c-.2369-.0746-.4916-.0126-.7387.0116-.0461.0045-.0956.0063-.1508.0063-.5265 0-.9533-.3819-.9533-.8532s.4268-.8532.9533-.8532z" fill="#bed700"/><path d="m1.75085 8.72363c.52651 0 .95332.38191.95332.8532 0 .28929-.05864.60017.06882.85987l.01003.0204-.14268-.0449c-.23686-.0746-.49157-.0126-.73872.0115-.04608.0045-.09562.0063-.15077.0063-.5265 0-.953321-.3819-.953321-.85317 0-.47129.426821-.8532.953321-.8532z" fill="#bed700"/><path d="m3.73633 1.78955c.5265 0 .95332.38191.95332.8532 0 .28929-.05864.60015.06882.85985l.01002.02043-.14267-.04493c-.23687-.07459-.49157-.01259-.73872.01155-.04609.0045-.09562.00629-.15077.00629-.52651 0-.95333-.3819-.95333-.85319s.42682-.8532.95333-.8532z" fill="#bed700"/><path clip-rule="evenodd" d="m9.90023 0c.41477 0 .75227.331528.75227.738895 0 .407365-.3375.738895-.75227.738895-.41475 0-.75228-.33153-.75228-.738895 0-.407367.33753-.738895.75228-.738895z" fill="#2d6645" fill-rule="evenodd"/><path clip-rule="evenodd" d="m16.2074 5.90039c.4148 0 .7523.32936.7523.7389 0 .40736-.3375.73672-.7523.73672-.4147 0-.7523-.32936-.7523-.73672 0-.40954.3376-.7389.7523-.7389z" fill="#2d6645" fill-rule="evenodd"/><path d="m11.6495.866699c-2.6111 0-4.72779 1.948811-4.72779 4.353741 0 .67614.15704 1.09597.45269 1.58865.12815.21356.17159.47038.09322.70679-.22916.69131-.53382 1.34131-1.14644 1.99079-.58478.61993 1.77391-.10143 2.69227-.39827.22502-.07273.4691-.0496.67971.05798.69744.35624 1.02674.40779 1.95634.40779 2.6111 0 4.7277-1.94881 4.7277-4.35373 0-2.40493-2.1166-4.353741-4.7277-4.353741z" fill="#57b34c"/><g fill="#213551"><path clip-rule="evenodd" d="m7.09393 22.0215h1.72517v.6977h-1.72517z" fill-rule="evenodd"/><path clip-rule="evenodd" d="m8.33191 20.6157h1.72739v.6956h-1.72739z" fill-rule="evenodd"/><path clip-rule="evenodd" d="m9.59131 19.105h1.32589v.6977h-1.32589z" fill-rule="evenodd"/><path clip-rule="evenodd" d="m7.19354 18.269h1.32587v.6978h-1.32587z" fill-rule="evenodd"/><path clip-rule="evenodd" d="m8.61365 17.062h1.65675v.6956h-1.65675z" fill-rule="evenodd"/><path clip-rule="evenodd" d="m7.93671 15.6533h1.25747v.6977h-1.25747z" fill-rule="evenodd"/><path d="m7.61449 14.5503h-.77434v3.7508h.77434z"/><path d="m11.2787 14.7368h-.7743v4.4226h.7743z"/></g></svg>

<svg width="18" height="24" viewBox="0 0 18 24" fill="none" xmlns="http://www.w3.org/2000/svg">
<g id="&#208;&#145;&#208;&#181;&#209;&#128;&#208;&#181;&#208;&#183;&#208;&#186;&#208;&#176;">
<path id="Vector" fill-rule="evenodd" clip-rule="evenodd" d="M3.26857 9.12012C4.56576 9.12012 5.61807 10.1537 5.61807 11.43C5.61807 12.7041 4.56576 13.7377 3.26857 13.7377C1.96918 13.7377 0.91687 12.7041 0.91687 11.43C0.91687 10.1537 1.96918 9.12012 3.26857 9.12012Z" fill="#57B34C"/>
<path id="Vector_2" d="M8.57942 5.90674C6.29789 5.90674 4.44836 7.52984 4.44836 9.53282C4.44836 10.0446 4.57045 10.5312 4.78946 10.9723C4.92657 11.2485 4.95751 11.5738 4.81953 11.8495L4.10669 13.274L5.97597 12.6967C6.20922 12.6247 6.45993 12.6615 6.67723 12.7728C7.27066 13.0766 7.79345 13.1589 8.57942 13.1589C10.8609 13.1589 12.7105 11.5358 12.7105 9.53282C12.7105 7.52984 10.8609 5.90674 8.57942 5.90674Z" fill="#2D6645"/>
<path id="Vector_3" fill-rule="evenodd" clip-rule="evenodd" d="M6.81821 23.2395C6.81821 21.714 6.86234 20.1842 6.82483 18.6609C6.82042 18.3879 6.80498 18.0001 6.6704 17.7552C6.53142 17.5017 6.17844 17.2135 5.96004 17.025C5.31806 16.4724 4.69815 15.9307 4.09368 15.337C3.86645 15.1138 3.80247 14.7975 3.92602 14.5071C4.04735 14.2167 4.32091 14.0391 4.64079 14.0391H13.4762C13.7961 14.0391 14.0697 14.2167 14.1932 14.5071C14.3145 14.7975 14.2506 15.1138 14.0233 15.337C13.4189 15.9307 12.799 16.4724 12.157 17.0271C11.9386 17.2135 11.5856 17.5017 11.4466 17.7552C11.3076 18.0087 11.2966 18.4096 11.2922 18.6869C11.2591 20.2037 11.2988 21.7227 11.2988 23.2395C11.2988 23.6599 10.9502 24.0001 10.5245 24.0001C9.54716 24.0001 8.56986 24.0001 7.59255 24.0001C7.16678 24.0001 6.81821 23.6599 6.81821 23.2395Z" fill="#213551"/>
<path id="Vector_4" fill-rule="evenodd" clip-rule="evenodd" d="M4.64093 14.7998C7.03896 17.1508 7.5574 16.8778 7.59931 18.6416C7.63461 20.0717 7.59269 21.8052 7.59269 23.2397C8.5722 23.2397 9.54509 23.2397 10.5246 23.2397C10.5246 21.8139 10.4871 20.0934 10.518 18.672C10.5555 16.8778 11.0651 17.1638 13.4764 14.7998H9.41052H8.70677H4.64093Z" fill="#FEFEFE"/>
<path id="Vector_5" fill-rule="evenodd" clip-rule="evenodd" d="M14.4799 8.95996C15.7859 8.95996 16.8471 10 16.8471 11.285C16.8471 12.5678 15.7859 13.6078 14.4799 13.6078C13.1739 13.6078 12.1128 12.5678 12.1128 11.285C12.1128 10 13.1739 8.95996 14.4799 8.95996Z" fill="#367A46"/>
<path id="Vector_6" fill-rule="evenodd" clip-rule="evenodd" d="M6.0923 0.554688C7.22182 0.554688 8.13735 1.45393 8.13735 2.56335C8.13735 3.67278 7.22182 4.57202 6.0923 4.57202C4.96277 4.57202 4.04724 3.67278 4.04724 2.56335C4.04724 1.45393 4.96277 0.554688 6.0923 0.554688Z" fill="#2D6645"/>
<path id="Vector_7" fill-rule="evenodd" clip-rule="evenodd" d="M4.80845 3.09863C7.0697 3.09863 8.90297 4.89928 8.90297 7.12247C8.90297 9.34348 7.0697 11.1441 4.80845 11.1441C2.5472 11.1441 0.713928 9.34348 0.713928 7.12247C0.713928 4.89928 2.5472 3.09863 4.80845 3.09863Z" fill="#367A46"/>
<path id="Vector_8" d="M8.01551 0.0561523C7.372 0.0561523 6.85033 0.533536 6.85033 1.12265C6.85033 1.15758 6.85219 1.19212 6.85581 1.22617C6.88725 1.52196 6.93933 1.83673 6.81064 2.1049L6.75397 2.223L7.00392 2.1425C7.24499 2.06486 7.50265 2.12731 7.75219 2.17061C7.83062 2.18422 7.91551 2.18914 8.01551 2.18914C8.65901 2.18914 9.18068 1.71176 9.18068 1.12265C9.18068 0.533536 8.65901 0.0561523 8.01551 0.0561523Z" fill="#BED700"/>
<path id="Vector_9" fill-rule="evenodd" clip-rule="evenodd" d="M15.3249 6.46143C16.4081 6.46143 17.2861 7.32383 17.2861 8.38559C17.2861 9.44951 16.4081 10.3119 15.3249 10.3119C14.2417 10.3119 13.3636 9.44951 13.3636 8.38559C13.3636 7.32383 14.2417 6.46143 15.3249 6.46143Z" fill="#BED700"/>
<path id="Vector_10" d="M5.35944 10.6738C4.83293 10.6738 4.40612 11.0557 4.40612 11.527C4.40612 11.8163 4.46476 12.1272 4.3373 12.3869L4.32727 12.4073L4.46995 12.3624C4.70681 12.2878 4.96152 12.3498 5.20867 12.3739C5.25475 12.3784 5.30429 12.3802 5.35944 12.3802C5.88595 12.3802 6.31276 11.9983 6.31276 11.527C6.31276 11.0557 5.88595 10.6738 5.35944 10.6738Z" fill="#BED700"/>
<path id="Vector_11" d="M12.4771 11.2676C13.0036 11.2676 13.4304 11.6495 13.4304 12.1208C13.4304 12.4101 13.3718 12.7209 13.4993 12.9806L13.5093 13.0011L13.3666 12.9561C13.1297 12.8815 12.875 12.9435 12.6279 12.9677C12.5818 12.9722 12.5323 12.974 12.4771 12.974C11.9506 12.974 11.5238 12.5921 11.5238 12.1208C11.5238 11.6495 11.9506 11.2676 12.4771 11.2676Z" fill="#BED700"/>
<path id="Vector_12" d="M1.75085 8.72363C2.27736 8.72363 2.70417 9.10554 2.70417 9.57683C2.70417 9.86612 2.64553 10.177 2.77299 10.4367L2.78302 10.4571L2.64034 10.4122C2.40348 10.3376 2.14877 10.3996 1.90162 10.4237C1.85554 10.4282 1.806 10.43 1.75085 10.43C1.22435 10.43 0.797529 10.0481 0.797529 9.57683C0.797529 9.10554 1.22435 8.72363 1.75085 8.72363Z" fill="#BED700"/>
<path id="Vector_13" d="M3.73633 1.78955C4.26283 1.78955 4.68965 2.17146 4.68965 2.64275C4.68965 2.93204 4.63101 3.2429 4.75847 3.5026L4.76849 3.52303L4.62582 3.4781C4.38895 3.40351 4.13425 3.46551 3.8871 3.48965C3.84101 3.49415 3.79148 3.49594 3.73633 3.49594C3.20982 3.49594 2.783 3.11404 2.783 2.64275C2.783 2.17146 3.20982 1.78955 3.73633 1.78955Z" fill="#BED700"/>
<path id="Vector_14" fill-rule="evenodd" clip-rule="evenodd" d="M9.90023 0C10.315 0 10.6525 0.331528 10.6525 0.738895C10.6525 1.14626 10.315 1.47779 9.90023 1.47779C9.48548 1.47779 9.14795 1.14626 9.14795 0.738895C9.14795 0.331528 9.48548 0 9.90023 0Z" fill="#2D6645"/>
<path id="Vector_15" fill-rule="evenodd" clip-rule="evenodd" d="M16.2074 5.90039C16.6222 5.90039 16.9597 6.22975 16.9597 6.63929C16.9597 7.04665 16.6222 7.37601 16.2074 7.37601C15.7927 7.37601 15.4551 7.04665 15.4551 6.63929C15.4551 6.22975 15.7927 5.90039 16.2074 5.90039Z" fill="#2D6645"/>
<path id="Vector_16" d="M11.6495 0.866699C9.0384 0.866699 6.92171 2.81551 6.92171 5.22044C6.92171 5.89658 7.07875 6.31641 7.3744 6.80909C7.50255 7.02265 7.54599 7.27947 7.46762 7.51588C7.23846 8.20719 6.9338 8.85719 6.32118 9.50667C5.7364 10.1266 8.09509 9.40524 9.01345 9.1084C9.23847 9.03567 9.48255 9.0588 9.69316 9.16638C10.3906 9.52262 10.7199 9.57417 11.6495 9.57417C14.2606 9.57417 16.3772 7.62536 16.3772 5.22044C16.3772 2.81551 14.2606 0.866699 11.6495 0.866699Z" fill="#57B34C"/>
<path id="Vector_17" fill-rule="evenodd" clip-rule="evenodd" d="M7.09393 22.0215H8.8191V22.7192H7.09393V22.0215Z" fill="#213551"/>
<path id="Vector_18" fill-rule="evenodd" clip-rule="evenodd" d="M8.33191 20.6157H10.0593V21.3113H8.33191V20.6157Z" fill="#213551"/>
<path id="Vector_19" fill-rule="evenodd" clip-rule="evenodd" d="M9.59131 19.105H10.9172V19.8027H9.59131V19.105Z" fill="#213551"/>
<path id="Vector_20" fill-rule="evenodd" clip-rule="evenodd" d="M7.19354 18.269H8.51941V18.9668H7.19354V18.269Z" fill="#213551"/>
<path id="Vector_21" fill-rule="evenodd" clip-rule="evenodd" d="M8.61365 17.062H10.2704V17.7576H8.61365V17.062Z" fill="#213551"/>
<path id="Vector_22" fill-rule="evenodd" clip-rule="evenodd" d="M7.93671 15.6533H9.19418V16.351H7.93671V15.6533Z" fill="#213551"/>
<path id="Vector_23" d="M7.61449 14.5503H6.84015V18.3011H7.61449V14.5503Z" fill="#213551"/>
<path id="Vector_24" d="M11.2787 14.7368H10.5044V19.1594H11.2787V14.7368Z" fill="#213551"/>
</g>
</svg>
